build/Karasa-Jaga/scalable/mimetypes/font-x-generic-symbolic.svg

<svg height="16" width="16" xmlns="http://www.w3.org/2000/svg"><g fill="#bebebe"><g transform="matrix(1 0 0 -.94507616 0 15.560609)"><path d="m2 .59431018v14.81249982h12v-11.6392734l-3.5-3.17434737zm8 1.05699482 3 2.6452895v10.0520995h-10v-12.697389z" fill-opacity=".902043"/><path d="m10.5.59318923h-.5v3.17434737h4z"/></g><path d="m7.166498 3.8643924h-.7569083q-1.1774129 0-1.5839005.3223869-.3924711.3223869-.6447738 1.4717661h-.3364036l.084101-2.3828594h7.9054872l.0841 2.3828594h-.336402q-.238286-1.163396-.644774-1.4717661-.392471-.3223869-1.5839021-.3223869h-.7569082v7.1625946q0 .770925.2382858.995194.2382861.224269 1.1073291.26632v.266319h-4.0929117v-.266319q.8690428-.05606 1.0933119-.280337.2242692-.238286.2242692-1.135362z"/></g></svg>

<?xml version="1.0" encoding="UTF-8" standalone="no"?>
<!-- Created with Inkscape (http://www.inkscape.org/) -->

<svg
   xmlns:dc="http://purl.org/dc/elements/1.1/"
   xmlns:cc="http://creativecommons.org/ns#"
   xmlns:rdf="http://www.w3.org/1999/02/22-rdf-syntax-ns#"
   xmlns:svg="http://www.w3.org/2000/svg"
   xmlns="http://www.w3.org/2000/svg"
   xmlns:xlink="http://www.w3.org/1999/xlink"
   xmlns:sodipodi="http://sodipodi.sourceforge.net/DTD/sodipodi-0.dtd"
   xmlns:inkscape="http://www.inkscape.org/namespaces/inkscape"
   id="svg7384"
   height="16"
   width="16"
   version="1.1"
   inkscape:version="0.92.2 (unknown)"
   sodipodi:docname="font-x-generic-symbolic.svg">
  <defs
     id="defs10">
    <linearGradient
       id="linearGradient4565">
      <stop
         style="stop-color:#161616;stop-opacity:1;"
         offset="0"
         id="stop4567" />
      <stop
         style="stop-color:#3a3a3a;stop-opacity:1;"
         offset="1"
         id="stop4569" />
    </linearGradient>
    <linearGradient
       id="linearGradient3569">
      <stop
         style="stop-color:#161616;stop-opacity:1;"
         offset="0"
         id="stop3571" />
      <stop
         style="stop-color:#3a3a3a;stop-opacity:1;"
         offset="1"
         id="stop3573" />
    </linearGradient>
    <linearGradient
       y2="-40.636906"
       x2="54.675591"
       y1="40.918156"
       x1="136.23065"
       gradientUnits="userSpaceOnUse"
       id="linearGradient4548"
       xlink:href="#linearGradient3569"
       inkscape:collect="always" />
  </defs>
  <sodipodi:namedview
     pagecolor="#ffffff"
     bordercolor="#666666"
     borderopacity="1"
     objecttolerance="10"
     gridtolerance="10"
     guidetolerance="10"
     inkscape:pageopacity="0"
     inkscape:pageshadow="2"
     inkscape:window-width="1317"
     inkscape:window-height="716"
     id="namedview8"
     showgrid="false"
     inkscape:zoom="14.75"
     inkscape:cx="-9.6228425"
     inkscape:cy="6.5254463"
     inkscape:window-x="49"
     inkscape:window-y="27"
     inkscape:window-maximized="1"
     inkscape:current-layer="svg7384" />
  <metadata
     id="metadata90">
    <rdf:RDF>
      <cc:Work
         rdf:about="">
        <dc:format>image/svg+xml</dc:format>
        <dc:type
           rdf:resource="http://purl.org/dc/dcmitype/StillImage" />
        <dc:title>Gnome Symbolic Icon Theme</dc:title>
      </cc:Work>
    </rdf:RDF>
  </metadata>
  <title
     id="title9167">Gnome Symbolic Icon Theme</title>
  <g
     id="g835"
     transform="matrix(1,0,0,-0.94507616,0,15.560609)">
    <path
       id="rect7217"
       d="m 2.21875,0.59375 v 14.8125 H 6.984375 13.78125 V 3.8984375 3.8125 L 10.375,0.59375 Z M 9.9375,1.25 13.03125,3.9375 13.175781,3.8984375 13.1875,14.75 8,14.773438 H 7.9355469 L 2.8125,14.75 2.84375,1.28125 Z"
       style="fill:#bebebe;fill-opacity:0.9020427;stroke:none"
       inkscape:connector-curvature="0" />
    <path
       sodipodi:nodetypes="cccccc"
       inkscape:connector-curvature="0"
       id="path7212"
       d="m 10.399923,1.0711876 0.121037,2.8764119 2.795,0.039625 V 3.5485288 L 10.761202,1.071188 Z"
       style="fill:#bebebe;fill-opacity:1;stroke:none" />
  </g>
  <path
     d="M 7.166498,3.8643924 H 6.4095897 q -1.1774129,0 -1.5839005,0.3223869 Q 4.4332181,4.5091662 4.1809154,5.6585454 H 3.8445118 L 3.9286128,3.275686 H 11.8341 l 0.0841,2.3828594 H 11.581798 Q 11.343512,4.4951494 10.937024,4.1867793 10.544553,3.8643924 9.3531219,3.8643924 H 8.5962137 v 7.1625946 q 0,0.770925 0.2382858,0.995194 0.2382861,0.224269 1.1073291,0.26632 V 12.55482 H 5.8489169 V 12.288501 Q 6.7179597,12.232441 6.9422288,12.008164 7.166498,11.769878 7.166498,10.872802 Z"
     style="font-style:normal;font-variant:normal;font-weight:normal;font-stretch:normal;font-size:medium;line-height:1.25;font-family:FreeSerif;-inkscape-font-specification:FreeSerif;letter-spacing:0px;word-spacing:0px;fill:#bebebe;fill-opacity:1;stroke:none;stroke-width:0.3504205"
     id="path832"
     inkscape:connector-curvature="0" />
</svg>
